airbyte/airbyte-config/init/src/main/resources/icons/recurly.svg

<svg xmlns="http://www.w3.org/2000/svg" xml:space="preserve" width="192" height="192"><path d="m715.637 1177.56 5.078-.01v.01h-5.078" style="fill:#fff;fill-opacity:1;fill-rule:nonzero;stroke:none" transform="matrix(.13333 0 0 -.13333 0 192)"/><path d="M720 1440C322.355 1440 0 1117.64 0 720 0 322.352 322.355 0 720 0c397.65 0 720 322.352 720 720 0 397.64-322.35 720-720 720" style="fill:#6a2783;fill-opacity:1;fill-rule:nonzero;stroke:none" transform="matrix(.13333 0 0 -.13333 0 192)"/><path d="m715.637 1177.56 5.078-.01v.01h-5.078M822.352 665.367c103.933 26.309 206.658 113.324 206.658 255.238 0 173.915-119.283 256.885-308.092 256.945h-.203c-166.641-.05-262.934-78.68-285.434-214.987h-82.668l165.231-140.489 174.633 140.489h-93.821s.75 97.597 124.254 97.597c105.403 0 141.41-76.816 141.41-140.719 0-93.113-49.23-163.625-167.203-163.625H435.063l-.102-453.054h165.297V643.75h.527c36.375 0 71.727-13.492 132.746-103.848l147.157-237.14h183.952L912.781 545.949c-39.941 62.141-69.707 103.141-90.429 119.418" style="fill:#fff;fill-opacity:1;fill-rule:nonzero;stroke:none" transform="matrix(.13333 0 0 -.13333 0 192)"/></svg>

<?xml version="1.0" encoding="UTF-8" standalone="no"?>
<svg
   xmlns:dc="http://purl.org/dc/elements/1.1/"
   xmlns:cc="http://creativecommons.org/ns#"
   xmlns:rdf="http://www.w3.org/1999/02/22-rdf-syntax-ns#"
   xmlns:svg="http://www.w3.org/2000/svg"
   xmlns="http://www.w3.org/2000/svg"
   xmlns:sodipodi="http://sodipodi.sourceforge.net/DTD/sodipodi-0.dtd"
   xmlns:inkscape="http://www.inkscape.org/namespaces/inkscape"
   version="1.1"
   id="svg2"
   xml:space="preserve"
   width="192"
   height="192"
   viewBox="0 0 192 192"
   sodipodi:docname="Recurly_R_Logomark_Purple.eps"><metadata
     id="metadata8"><rdf:RDF><cc:Work
         rdf:about=""><dc:format>image/svg+xml</dc:format><dc:type
           rdf:resource="http://purl.org/dc/dcmitype/StillImage" /></cc:Work></rdf:RDF></metadata><defs
     id="defs6" /><sodipodi:namedview
     pagecolor="#ffffff"
     bordercolor="#666666"
     borderopacity="1"
     objecttolerance="10"
     gridtolerance="10"
     guidetolerance="10"
     inkscape:pageopacity="0"
     inkscape:pageshadow="2"
     inkscape:window-width="640"
     inkscape:window-height="480"
     id="namedview4" /><g
     id="g10"
     inkscape:groupmode="layer"
     inkscape:label="ink_ext_XXXXXX"
     transform="matrix(1.3333333,0,0,-1.3333333,0,192)"><g
       id="g12"
       transform="scale(0.1)"><path
         d="m 715.637,1177.56 5.078,-0.01 v 0.01 c -0.281,0 -5.113,0 -5.078,0"
         style="fill:#ffffff;fill-opacity:1;fill-rule:nonzero;stroke:none"
         id="path14" /><path
         d="M 720,1440 C 322.355,1440 0,1117.64 0,720 0,322.352 322.355,0 720,0 c 397.65,0 720,322.352 720,720 0,397.64 -322.35,720 -720,720"
         style="fill:#6a2783;fill-opacity:1;fill-rule:nonzero;stroke:none"
         id="path16" /><path
         d="m 715.637,1177.56 5.078,-0.01 v 0.01 c -0.281,0 -5.113,0 -5.078,0"
         style="fill:#ffffff;fill-opacity:1;fill-rule:nonzero;stroke:none"
         id="path18" /><path
         d="m 822.352,665.367 c 103.933,26.309 206.658,113.324 206.658,255.238 0,173.915 -119.283,256.885 -308.092,256.945 h -0.203 C 554.074,1177.5 457.781,1098.87 435.281,962.563 H 352.613 L 517.844,822.074 692.477,962.563 h -93.821 c 0,0 0.75,97.597 124.254,97.597 105.403,0 141.41,-76.816 141.41,-140.719 0,-93.113 -49.23,-163.625 -167.203,-163.625 H 435.063 L 434.961,302.762 H 600.258 V 643.75 h 0.527 c 36.375,0 71.727,-13.492 132.746,-103.848 L 880.688,302.762 H 1064.64 L 912.781,545.949 C 872.84,608.09 843.074,649.09 822.352,665.367"
         style="fill:#ffffff;fill-opacity:1;fill-rule:nonzero;stroke:none"
         id="path20" /></g></g></svg>
